lib/logo_tmp/nrk-logo-nrk-jazz-with-bg.svg

<svg width="97" height="28" viewBox="0 0 97 28" fill="none" xmlns="http://www.w3.org/2000/svg">
<rect width="96.3333" height="28" fill="#481581"/>
<path d="M6.66663 21.0001V7.00135H11.26V21.0001H6.66663ZM17.5094 9.22932L20.151 21.0001H15.124L11.9697 7.00135H14.7892C15.4357 6.99296 16.063 7.22087 16.5535 7.6422C17.0449 8.04586 17.3824 8.60623 17.5094 9.22932ZM20.8411 21.0001V7.00135H25.4345V21.0001H20.8411ZM28.9038 12.3249C28.4089 12.3297 27.9218 12.2002 27.4946 11.9502C27.073 11.7066 26.7229 11.3564 26.4793 10.9348C26.229 10.5075 26.0995 10.0203 26.1044 9.52512C26.0988 9.03295 26.2284 8.54869 26.4793 8.12525C26.7255 7.70824 27.0752 7.36186 27.4946 7.11969C27.922 6.87 28.4089 6.74052 28.9038 6.74503C29.3959 6.73973 29.8799 6.86933 30.3035 7.11969C30.7187 7.36398 31.0647 7.71007 31.309 8.12525C31.5596 8.54881 31.6892 9.03299 31.6838 9.52512C31.6884 10.0203 31.5589 10.5073 31.309 10.9348C31.0673 11.3545 30.7209 11.7044 30.3035 11.9502C29.8799 12.2011 29.3955 12.3307 28.9032 12.3249H28.9038ZM32.3935 21.0001V7.00135H36.9873V21.0001H32.3935ZM42.8027 14.6514C42.8156 14.6649 42.9141 14.8259 43.0983 15.1344C43.2826 15.4429 43.5224 15.8372 43.8179 16.3174C44.1136 16.7974 44.4257 17.3067 44.754 17.8454C45.0824 18.3841 45.3913 18.8935 45.6809 19.3735C45.9694 19.8535 46.298 20.3957 46.6666 21.0001H41.6198C41.3041 20.4875 41.0181 20.0241 40.7618 19.6101C40.5056 19.196 40.2331 18.7491 39.9444 18.2693C39.6551 17.79 39.369 17.3234 39.0862 16.8695C38.8034 16.4155 38.5604 16.018 38.3571 15.6766C38.153 15.3351 38.0116 15.1051 37.9329 14.9865C37.7379 14.6924 37.6225 14.3528 37.5981 14.0007C37.6176 13.6628 37.7263 13.3362 37.9132 13.054C37.992 12.9226 38.1366 12.6892 38.3469 12.3541C38.5572 12.0189 38.8036 11.6213 39.0862 11.1613C39.3688 10.7012 39.6549 10.2313 39.9444 9.75152C40.234 9.27175 40.5064 8.82152 40.7618 8.4009C41.0186 7.98072 41.3046 7.5141 41.6198 7.00103H46.6666L42.7629 13.3695C42.6421 13.5586 42.574 13.7765 42.5657 14.0007C42.5787 14.2361 42.6609 14.4625 42.8019 14.6514H42.8027Z" fill="white"/>
<path d="M55.8077 17.8136C55.8113 18.0423 55.7714 18.2697 55.6899 18.4833C55.6162 18.673 55.5024 18.8443 55.3563 18.9855C55.2046 19.128 55.0237 19.2355 54.8263 19.3007C54.5984 19.3758 54.3596 19.4124 54.1197 19.409C53.9627 19.409 53.8155 19.4024 53.6781 19.3893C53.5407 19.3762 53.4033 19.3598 53.2659 19.3401C53.1285 19.3204 52.9912 19.2973 52.8538 19.2708C52.7164 19.2443 52.5758 19.2149 52.4318 19.1825C52.2879 19.1497 52.1439 19.1136 52 19.0742L52.157 20.8468C52.3402 20.8993 52.5169 20.9485 52.687 20.9942C52.8571 21.0405 53.0271 21.0795 53.1972 21.1127C53.3724 21.1459 53.5494 21.1689 53.7272 21.1813C53.9104 21.1945 54.1132 21.2011 54.3356 21.2013C54.7894 21.2085 55.2419 21.152 55.6801 21.0336C56.0375 20.9362 56.3737 20.7726 56.6713 20.5514C56.9396 20.3483 57.1691 20.098 57.3485 19.8128C57.5268 19.5266 57.6592 19.2141 57.741 18.8868C57.8273 18.5422 57.8701 18.1882 57.8685 17.833V7.00012H55.8077V17.8136Z" fill="#DBBFFA"/>
<path d="M69.4879 19.7439C69.3444 19.757 69.1999 19.7353 69.0667 19.6804C68.9334 19.6255 68.8153 19.5392 68.7224 19.4287C68.5404 19.1131 68.4647 18.747 68.5065 18.3848L68.5458 14.3274C68.5501 13.9021 68.4973 13.4781 68.3888 13.0669C68.2934 12.7062 68.1338 12.3658 67.9177 12.0621C67.6992 11.7653 67.4219 11.5172 67.1031 11.3333C66.7327 11.1224 66.3323 10.9697 65.9157 10.8806C65.4063 10.7702 64.8863 10.7174 64.3652 10.7231C63.9518 10.7227 63.5387 10.7489 63.1286 10.8015C62.7412 10.8507 62.3576 10.9264 61.9804 11.0283C61.6307 11.1234 61.2867 11.2385 60.95 11.373L60.7144 13.0472C61.0416 12.9292 61.3524 12.8307 61.6468 12.7517C61.9412 12.6727 62.2258 12.6071 62.5006 12.5548C62.7698 12.5032 63.0418 12.4672 63.3151 12.4468C63.5829 12.4271 63.8479 12.4171 64.11 12.4169C64.5102 12.4084 64.9097 12.4548 65.2974 12.5548C65.5804 12.6258 65.8405 12.7683 66.0531 12.9687C66.2425 13.1634 66.3778 13.4045 66.4456 13.6679C66.5293 13.9926 66.569 14.3272 66.5634 14.6626L66.5611 15.1566L64.267 15.3126C63.4824 15.3346 62.7093 15.5083 61.9903 15.8243C61.4523 16.0607 60.9878 16.4384 60.6458 16.9175C60.3556 17.3439 60.2016 17.8488 60.2042 18.3651C60.2006 18.8497 60.3186 19.3274 60.5476 19.754C60.7878 20.192 61.1491 20.551 61.5879 20.7877C62.1233 21.0673 62.7217 21.203 63.3249 21.1817C63.89 21.1947 64.4526 21.1012 64.9834 20.9063C65.4423 20.726 65.8622 20.4585 66.2199 20.1184C66.3558 19.9878 66.4846 19.8501 66.6059 19.7058C66.644 19.9098 66.7159 20.106 66.8186 20.2862C66.9936 20.5876 67.2625 20.8229 67.584 20.9558C67.9394 21.0991 68.3199 21.1695 68.7028 21.1626C68.8206 21.1626 68.9351 21.159 69.0463 21.1528C69.1555 21.1462 69.2639 21.1296 69.3701 21.1032C69.4748 21.077 69.5693 21.0543 69.6547 21.0343C69.7316 21.0172 69.8071 20.9941 69.8804 20.9653L70.0963 19.646C69.988 19.6832 69.8762 19.7096 69.7627 19.7248C69.6716 19.7368 69.5798 19.7431 69.4879 19.7439ZM66.2199 18.8575C66.0071 19.0264 65.7768 19.1718 65.5329 19.2912C65.29 19.4096 65.0327 19.4957 64.7675 19.5472C64.4926 19.6002 64.2133 19.6265 63.9333 19.6257C63.6135 19.635 63.2953 19.5745 63.001 19.4484C62.7615 19.3443 62.5596 19.1691 62.4221 18.9465C62.2861 18.7104 62.2181 18.441 62.2258 18.1685C62.2068 17.84 62.2965 17.5145 62.4809 17.2425C62.6947 16.9923 62.9843 16.8193 63.3053 16.7501C63.8067 16.6317 64.3213 16.5789 64.8362 16.5928H66.5549L66.5461 18.5476C66.4464 18.66 66.3372 18.7639 66.2199 18.8575Z" fill="#DBBFFA"/>
<path d="M79.3797 12.3381L79.1442 10.9393H71.5681L71.3325 12.515H77.0323L71.1562 19.645L71.3917 20.9843H79.3997L79.6155 19.3889H73.6165L79.3797 12.3381Z" fill="#DBBFFA"/>
<path d="M83.5083 19.3893L89.2722 12.3385L89.0363 10.9397H81.4602L81.2246 12.5154H86.9241L81.0481 19.6454L81.2836 20.9847H89.2915L89.5074 19.3893H83.5083Z" fill="#DBBFFA"/>
</svg>

<svg xmlns="http://www.w3.org/2000/svg" viewBox="0 0 97 28"><path fill="#481581" d="M0 0h96.333v28H0z"/><path fill="#fff" d="M6.667 21V7.001h4.593v14H6.667ZM17.509 9.23 20.151 21h-5.027L11.97 7.001h2.82a2.655 2.655 0 0 1 1.764.641c.49.404.828.964.955 1.587ZM20.841 21V7.001h4.593v14h-4.593Zm8.063-8.675a2.738 2.738 0 0 1-1.41-.375 2.777 2.777 0 0 1-1.015-1.015 2.735 2.735 0 0 1-.375-1.41 2.686 2.686 0 0 1 .375-1.4 2.812 2.812 0 0 1 3.825-1.005c.415.244.76.59 1.005 1.005.25.424.38.908.375 1.4.004.495-.125.982-.375 1.41a2.8 2.8 0 0 1-1.006 1.015c-.423.251-.908.38-1.4.375ZM32.394 21V7.001h4.593v14h-4.593Zm10.409-6.349c.013.014.111.175.295.483.185.309.424.703.72 1.183a373.133 373.133 0 0 1 1.863 3.056c.288.48.617 1.023.986 1.627H41.62a712.71 712.71 0 0 0-.858-1.39 127.3 127.3 0 0 1-.818-1.34c-.289-.48-.575-.947-.858-1.4a71.117 71.117 0 0 1-.729-1.193 20.869 20.869 0 0 0-.424-.69 2.039 2.039 0 0 1-.335-.986c.02-.338.128-.665.315-.947.079-.131.224-.365.434-.7a209.23 209.23 0 0 0 1.598-2.603c.289-.48.561-.93.817-1.35L41.62 7h5.047l-3.904 6.369c-.12.189-.189.407-.197.63.013.236.095.463.236.651Z"/><path fill="#DBBFFA" d="M55.808 17.814a1.8 1.8 0 0 1-.118.67c-.074.189-.188.36-.334.501-.151.143-.332.25-.53.316a2.16 2.16 0 0 1-.706.108c-.157 0-.304-.007-.442-.02a8.766 8.766 0 0 1-.824-.118 10.32 10.32 0 0 1-.854-.197l.157 1.773c.183.052.36.101.53.147.17.047.34.085.51.119.175.033.352.056.53.068.183.014.386.02.609.02.453.008.906-.049 1.344-.167.358-.098.694-.261.991-.483.269-.203.498-.453.678-.738.178-.286.31-.599.392-.926.086-.345.13-.699.127-1.054V7h-2.06v10.814ZM69.488 19.744a.892.892 0 0 1-.766-.315 1.7 1.7 0 0 1-.215-1.044l.039-4.058a4.753 4.753 0 0 0-.157-1.26 3.1 3.1 0 0 0-.471-1.005 2.665 2.665 0 0 0-.815-.729c-.37-.21-.77-.363-1.187-.452a6.96 6.96 0 0 0-1.55-.158c-.414 0-.827.026-1.237.079-.388.049-.771.124-1.149.226-.35.095-.693.21-1.03.345l-.236 1.674a11.687 11.687 0 0 1 1.787-.492c.269-.052.54-.088.814-.108.268-.02.533-.03.795-.03.4-.009.8.038 1.187.138.283.07.544.213.756.414.19.194.325.436.393.699.083.325.123.66.117.995l-.002.494-2.294.156a6.082 6.082 0 0 0-2.277.511 3.267 3.267 0 0 0-1.344 1.094 2.55 2.55 0 0 0-.442 1.447c-.003.485.115.962.344 1.389.24.438.601.797 1.04 1.034.535.28 1.134.415 1.737.394a4.51 4.51 0 0 0 1.658-.276c.46-.18.88-.447 1.237-.788.136-.13.265-.268.386-.412.038.204.11.4.213.58.175.302.444.537.765.67.355.143.736.213 1.119.207.118 0 .232-.004.343-.01a1.79 1.79 0 0 0 .324-.05l.285-.069a1.52 1.52 0 0 0 .225-.069l.216-1.319c-.108.037-.22.064-.333.079a2.255 2.255 0 0 1-.275.019Zm-3.268-.886a3.775 3.775 0 0 1-.687.433c-.243.119-.5.205-.766.256a4.34 4.34 0 0 1-.834.079c-.32.009-.638-.052-.932-.178a1.28 1.28 0 0 1-.579-.502 1.476 1.476 0 0 1-.196-.777c-.02-.329.07-.654.255-.927a1.5 1.5 0 0 1 .824-.492 5.961 5.961 0 0 1 1.531-.157h1.719l-.009 1.955c-.1.112-.209.216-.326.31ZM79.38 12.338l-.236-1.399h-7.576l-.236 1.576h5.7l-5.876 7.13.236 1.34H79.4l.215-1.596h-5.998l5.763-7.05ZM83.508 19.39l5.764-7.052-.236-1.398H81.46l-.235 1.575h5.7l-5.877 7.13.236 1.34h8.007l.216-1.596h-5.999Z"/></svg>
